X:1
T:Title
%%score { ( 1 3 ) | ( 2 4 5 ) }
L:1/8
Q:1/4=100
M:4/4
K:Eb
V:1 treble nm="Grand Piano"
V:3 treble 
V:2 bass 
V:4 bass 
V:5 bass 
V:1
 [B,EG]2 [A,DF]>[B,DG] [G,E]2 [B,EG]2 | [EGB]>[EGB] [B,EG][EGB] [Ge]4 | cc e>c [GB][Ac][GB][EG] | %3
w: W.~H.~Doane * * * *|||
 [DF]2 [EG]>[EG] [FA]4 | [EG]2 [DF]>[DG] E2 G2 |[M:5/4] z2 .A2 z2 z4 | %6
w: |||
[M:4/4] [EB]>[EB] [EB]2 [Ge]>[Ge] [Ge]2 | [Ge]2 [Fd]2 [Ge]4 | B>B B>B B2 B2 | %9
w: |||
 d>d d2 [Ge]>[Ge] [Ge]2 | [Af]>[Af] [Af]>[Af] [Ge]2 [Ge]2 | [Fd]2 [EFc]2 [DFB]4 | %12
w: |||
 [EGB]>[Ge] [Ge]>[Ge] [Ge]2 [GB]2 | c>c c>c e4 | B>B B2 e>e e2 | e2 [Fd]2 [Ge]4 |] %16
w: ||||
V:2
 E,2 B,,>B,, E,2 E,2 | E,>E, E,E, [E,B,]4 | [A,E][A,E] [A,CE]>[A,E] [E,E][E,E][E,E][E,B,] | %3
 [B,,B,]2 [B,,B,]>[B,,B,] [B,,B,]4 | [E,B,]2 [B,,A,]>[B,,B,] [E,G,]2 [E,B,E]2 | %5
[M:5/4] z2 .E2 z2 z4 |[M:4/4] [B,,G,]>[B,,G,] [B,,G,]2 [B,,B,]>[B,,B,] [B,,B,]2 | %7
 [B,,B,]2 [B,,B,]2 [E,B,]4 | B,>B, B,>B, B,2 B,2 | %9
 [B,F]>[B,F] [B,F]2[K:bass] [E,B,]>[E,B,] [E,B,]2 | [D,B,]>[D,B,] [D,B,]>[D,B,] [E,B,]2 [E,B,]2 | %11
 [F,B,]2 F,2 B,,4 | E,>[E,B,] [E,B,]>[E,B,] [E,B,]2 [E,E]2 | [A,EA]>[A,EA] [A,EA]>[A,EA] [A,CA]4 | %14
 [B,EG]>[B,EG] [B,EG]2 [B,G]>[B,G] [B,G]2 | [B,G]2[K:bass] [B,,B,]2 [E,B,]4 |] %16
V:3
 x8 | x8 | x8 | x8 | x8 |[M:5/4] B>[EG] z/ A,/[EB] [Ec]6 |[M:4/4] x8 | x8 | x8 | x8 | x8 | x8 | %12
 x8 | x8 | x8 | x8 |] %16
V:4
 x8 | x8 | x8 | x8 | x8 |[M:5/4] z z/ [_D,B,]/- [D,B,]/ z/ z z2 z4 |[M:4/4] x8 | x8 | x8 | %9
 x4[K:bass] x4 | x8 | x8 | x8 | x8 | x8 | x2[K:bass] x6 |] %16
V:5
 x8 | x8 | x8 | x8 | x8 |[M:5/4] [E,G,E]2 z/ C,/[B,,G,] [A,,A,]6 |[M:4/4] x8 | x8 | x8 | %9
 x4[K:bass] x4 | x8 | x8 | x8 | x8 | x8 | x2[K:bass] x6 |] %16

